src/icons/mail-mark-read.svg

<svg viewBox="0 0 32 32" xmlns="http://www.w3.org/2000/svg"><path d="m2.7773441 1.9999998c-.4308891 0-.777344.4460001-.777344 1.0000001v3.9218749 2.0781251 20.0781251c0 .5114.319054.921875.716797.921875h26.5664059c.397743 0 .716797-.410474.716797-.921875v-22.1562502c0-.5114-.319054-.921875-.716797-.921875h-12.726562c-.886457.034-1.316068-.264328-1.707032-.736328l-1.849609-2.4199219c-.261411-.4404-.457783-.8437501-.888672-.8437501zm19.5292969 9.7636722c.309587 0 .572409.09265.789062.28125l1.580078 1.373047c.216627.18859.324365.41818.324219.6875 0 .269441-.107566.49891-.324219.6875l-8.408203 7.314453-1.580078 1.373047c-.216798.18849-.481428.283203-.791016.283203-.309736 0-.570455-.0946-.787109-.283203l-1.580078-1.373047-4.205078-3.658203c-.216855-.18847-.324219-.416227-.324219-.685547 0-.269439.10742-.498911.324219-.6875l1.580078-1.373047c.216799-.18859.479328-.283203.789062-.283203.30959 0 .574217.0946.791016.283203l3.412109 2.978516 7.619141-6.636719c.216662-.18869.48128-.28125.791016-.28125z" fill="#4285f4"/></svg>

<?xml version="1.0" encoding="UTF-8" standalone="no"?>
<svg
   xmlns:dc="http://purl.org/dc/elements/1.1/"
   xmlns:cc="http://creativecommons.org/ns#"
   xmlns:rdf="http://www.w3.org/1999/02/22-rdf-syntax-ns#"
   xmlns:svg="http://www.w3.org/2000/svg"
   xmlns="http://www.w3.org/2000/svg"
   xmlns:sodipodi="http://sodipodi.sourceforge.net/DTD/sodipodi-0.dtd"
   xmlns:inkscape="http://www.inkscape.org/namespaces/inkscape"
   viewBox="0 0 32 32"
   version="1.1"
   id="svg6"
   sodipodi:docname="mail-mark-read.svg"
   inkscape:version="1.0.1 (3bc2e813f5, 2020-09-07)">
  <metadata
     id="metadata12">
    <rdf:RDF>
      <cc:Work
         rdf:about="">
        <dc:format>image/svg+xml</dc:format>
        <dc:type
           rdf:resource="http://purl.org/dc/dcmitype/StillImage" />
        <dc:title />
      </cc:Work>
    </rdf:RDF>
  </metadata>
  <defs
     id="defs10" />
  <sodipodi:namedview
     pagecolor="#ffffff"
     bordercolor="#666666"
     borderopacity="1"
     objecttolerance="10"
     gridtolerance="10"
     guidetolerance="10"
     inkscape:pageopacity="0"
     inkscape:pageshadow="2"
     inkscape:window-width="1366"
     inkscape:window-height="702"
     id="namedview8"
     showgrid="false"
     inkscape:zoom="7.375"
     inkscape:cx="-9.7627118"
     inkscape:cy="16"
     inkscape:window-x="0"
     inkscape:window-y="0"
     inkscape:window-maximized="1"
     inkscape:current-layer="svg6"
     inkscape:document-rotation="0" />
  <g
     id="g15">
    <path
       id="path11"
       style="color:#f2f2f2;fill:#4285f4;fill-opacity:1;stroke:none;stroke-width:1.76383"
       d="m 2.7773441,1.9999998 c -0.4308891,0 -0.777344,0.4460001 -0.777344,1.0000001 V 6.9218748 8.9999999 29.078125 c 0,0.5114 0.319054,0.921875 0.716797,0.921875 H 29.283203 C 29.680946,30 30,29.589526 30,29.078125 V 6.9218748 c 0,-0.5114 -0.319054,-0.921875 -0.716797,-0.921875 H 16.556641 c -0.886457,0.034 -1.316068,-0.264328 -1.707032,-0.736328 L 13,2.8437499 C 12.738589,2.4033499 12.542217,1.9999998 12.111328,1.9999998 Z M 22.306641,11.763672 c 0.309587,0 0.572409,0.09265 0.789062,0.28125 l 1.580078,1.373047 c 0.216627,0.18859 0.324365,0.41818 0.324219,0.6875 0,0.269441 -0.107566,0.49891 -0.324219,0.6875 l -8.408203,7.314453 -1.580078,1.373047 c -0.216798,0.18849 -0.481428,0.283203 -0.791016,0.283203 -0.309736,0 -0.570455,-0.0946 -0.787109,-0.283203 L 11.529297,22.107422 7.324219,18.449219 C 7.107364,18.260749 7,18.032992 7,17.763672 c 0,-0.269439 0.10742,-0.498911 0.324219,-0.6875 l 1.580078,-1.373047 c 0.216799,-0.18859 0.479328,-0.283203 0.789062,-0.283203 0.30959,0 0.574217,0.0946 0.791016,0.283203 l 3.412109,2.978516 7.619141,-6.636719 c 0.216662,-0.18869 0.48128,-0.28125 0.791016,-0.28125 z" />
  </g>
</svg>
